X:1
T:At the Breaking of the Day
T:At the Breaking of the Day
T:John Robson Sweney
T:Frances Jane (Fanny) Crosby, 1891
T:Public Domain Courtesy of the Cyber Hymnal™
T:Public Domain Courtesy of the Cyber Hymnal™
C:John Robson Sweney
Z:Public Domain
Z:Courtesy of the Cyber Hymnal™
%%score ( 1 2 ) ( 3 4 )
L:1/8
Q:1/4=100
M:4/4
K:Ab
V:1 treble 
V:2 treble 
V:3 bass 
V:4 bass 
V:1
 [CA][DB] | [Ec][Ec][=D=B][Ec] [F_d][Ec] [Ec]>[_D_B] | [CA][CA][CA][DF] [CE]2 [A,C][B,D] | %3
w: 1.~Oh, how|oft a- mid our la- bor Do we|think of what will be When the|
w: 2.~Oh, how|oft a- mid the con- flict And the|bat- tle rag- ing high, With a|
w: 3.~End- less|praise to our Re- deem- er For His|all a- ton- ing love, That pre-|
 [CE][CE][EA][EB] [Ec]!fermata![Ee][EA][EA] | [DG][CA] [Ed]>[Ec] [EB]2 [EA][EB] | %5
w: boat shall drop its an- chor In the|ha- ven o’er the sea! And our|
w: faith as clear as noon- day We be-|hold the vic- tory nigh, And we|
w: pares for us a man- sion And a|crown of life a- bove, Where our|
 [Ec][Ec][=D=B][Ec] [F_d][Ec] [Ec]>[Ec] | [=Ec][EG][Ec][EB] [FA]2 |S [FA][DF] | %8
w: hearts, with joy ex- pand- ing, From our|tri- als look a- way,|When we|
w: know that with the right- eous We shall|stand in bright ar- ray,|When we|
w: eyes shall see the beau- ty Of the|flow’rs that ne’er de- cay,|When we|
 [CE][CE][CA][DB] [Ec]!fermata![_Ge][Fd][Fd] | [Ec]<[CA] [DG]>[DB] [CA]2!fine! || %10
w: all shall meet to- ge- ther, At the|break- ing of the day!|
w: all shall meet to- ge- ther, At the|break- ing of the day!|
w: all shall meet to- ge- ther, At the|break- ing of the day!|
"^Refrain" [EA][EA] | [EA]<[EG] [EG]>[EA] [EB]2 [Ed][Ed] | [Ed]<[Ec] [Ec]>[DB] [CA]2 [EA][EA] | %13
w: |||
w: At the|break- ing of the day, When we|an- chor on the shore, At the|
w: |||
 [EA]<[EG] [EG]>[EA] [EB]2 EE | [EA][EA][EA][EB] [Ec]2 [Ec]>[Ed] | %15
w: ||
w: break- ing of the day, When the|storms of life are o’er, When our|
w: ||
 [Ee][Ee][Ee][Ed] [Ec][Ec] [Ec]>[Ec] | [=Ec][EG][Ec][EB] [FA]2!D.S.! |] %17
w: ||
w: sor- row and our sigh- ing, Like a|dream will pass a- way,|
w: ||
V:2
 x2 | x8 | x8 | x8 | x8 | x8 | x6 | x2 | x8 | x6 || x2 | x8 | x8 | x6 EE | x8 | x8 | x6 |] %17
V:3
 [A,,E,][A,,E,] | [A,,A,][A,,A,][A,,A,][A,,A,] [A,,A,][A,,A,] [A,,A,]>[A,,E,] | %2
 [A,,E,][A,,E,][A,,E,][A,,A,] [A,,A,]2 [A,,E,][A,,E,] | %3
 [A,,A,][A,,A,][C,A,][E,G,] A,!fermata![A,C][C,A,][C,A,] | %4
 [B,,E,][A,,E,] [G,,E,]>[A,,A,] G,2 [C,A,][B,,G,] | %5
 [A,,A,][A,,A,][A,,A,][A,,A,] [A,,A,][A,,A,] [A,,A,]>[A,,A,] | [C,G,][C,G,][C,G,][C,C] [F,C]2 | %7
 [D,D][D,A,] | [A,,A,][A,,A,][A,,E,][A,,E,] [A,,A,]!fermata![C,A,][D,A,][D,A,] | %9
 [E,A,]<[E,A,] [E,B,]>[E,G,] [A,,A,]2 || [A,C][A,C] | %11
 [E,C]<[E,B,] [E,B,]>[E,C] [E,D]2 [E,G,][E,G,] | %12
 [A,,A,]<[A,,A,] [A,,A,]>[A,,E,] [A,,E,]2 [A,C][A,C] | %13
 [E,C]<[E,B,] [E,B,]>[E,C] [E,D]2 [D,G,][D,G,] | [C,A,][C,A,][C,A,][B,,G,] [A,,A,]2 A,>[A,B,] | %15
 [A,C][A,C][A,C][A,B,] A,A, [A,,A,]>[A,,A,] | [C,G,][C,G,][C,G,][C,C] [F,C]2 |] %17
V:4
 x2 | x8 | x8 | x4 A, x3 | x4 (E,D,) x2 | x8 | x6 | x2 | x8 | x6 || x2 | x8 | x8 | x8 | %14
 x6 A,3/2 x/ | x4 A,A, x2 | x6 |] %17

